X: 73
T: Msza Święta - Agnus Dei
C: Józef Stefani
%%abc-version 2.0
%%abcx-abcm2ps-target-version 5.9.1 (29 Sep 2008)
%%abc-creator hum2abc beta
%%abcx-conversion-date 2021/10/04 07:38:41
%%abc-edited-by Marcin Jachim
%%abc-edited-by Marta Lawrence
%%abcx-initial-encoding-date 2021-08-12
%%humdrum-veritas 3938555580
%%humdrum-veritas-data 2010791488
%%linebreak <none>
%%barnumbers 0
L: 1/4
M: C
N: Derived from pl-kozmzk--mzk-m-26--008_stefani-jozef-msza-swieta-agnus-dei.krn
Q: "Andantino."
V: 1 clef=tenor
V: 2 clef=tenor
V: 3 clef=bass
V: 4 clef=treble
V: 5 clef=bass
K: Bb
[V:1] x2x/ [I:setbarnb 1]]|:  
[V:2] x2x/ ]|:  
[V:3] x2x/ ]|:  
[V:4] F/G/A/B/c/ ]|:  
[V:5] x2x/ ]|:  
[V:1] D2FF/E/ | 
[V:2] B,2B,A, | 
[V:3] B,,2D,C, | 
[V:4] d2f3/e/ & B2-BA | 
[V:5] F,4 & B,,2D,C, | 
[V:1] D2DD | 
[V:2] B,2B,B, | 
[V:3] B,,2B,,G, | 
[V:4] [d3B3][dB] & F3x | 
[V:5] [F,3B,,3][G,G,,] | 
[V:1] C3/D//C//B,C | 
[V:2] G,2G,G, | 
[V:3] E,2E,E, | 
[V:4] c3/d//c//Bc & G4 | 
[V:5] [C4G,4E,4] | 
[V:1] D2Dz | 
[V:2] G,^F,/=E,/F,z | 
[V:3] D,2D,z | 
[V:4] d2-d2 & G^F/=E/F2 | 
[V:5] [D2A,2D,2]-[D2A,2D,2] | 
[V:1] !accent!E2!accent!D2 | 
[V:2] G,A,B,2 | 
[V:3] C,2B,,2 | 
[V:4] e2d2 & GAB2 | 
[V:5] [C2C,2][B,2B,,2] | 
[V:1] !accent!G2!accent!F2 | 
[V:2] B,2B,2 | 
[V:3] E,2D,2 | 
[V:4] [g2B2-G2][f2B2F2] | 
[V:5] [B,2G,2E,2][B,2F,2D,2] | 
[V:1] FEDF/E/ | 
[V:2] G,A,B,3/C/ | 
[V:3] C,2B,,D,/E,/ | 
[V:4] fedf/e/ & GAB3/c/ | 
[V:5] C2[B,3/F,3/]C/ & G,F,B,,D,/[G,/E,/] | 
[V:1] !turn!D>ECz | 
[V:2] !turn!B,>CA,z | 
[V:3] F,2F,z | 
[V:4] [dB]>[ec]cF & x2Ax | 
[V:5] [DB,]>[EC][CA,]z & F,3z | 
[V:1] !accent!F2!accent!B,3/B,/ | 
[V:2] B,2!accent!F,3/F,/ | 
[V:3] D,2!accent!D,3/D,/ | 
[V:4] [f2F2][B2F2] | 
[V:5] [B,4F,4D,4] | 
[V:1] A,3/B,//C//B,C/D/ | 
[V:2] F,2F,F, | 
[V:3] E,2D,C,/B,,/ | 
[V:4] A3/B//c//B[c/A/][d/B/] & F2FF | 
[V:5] [C2G,2E,2][B,F,][C/C,/][B,/B,,/] & x2D,x | 
[V:1] E>CD3/F/ | 
[V:2] F,2F,3/F,/ | 
[V:3] A,,2B,,3/D,/ | 
[V:4] [ec]>cd3/f/ & F2[B2F2] | 
[V:5] [A,2A,,2][B,2D,2] | 
[V:1] C2Cz | 
[V:2] A,2A,z | 
[V:3] F,2F,z | 
[V:4] [c3A3F3]F3//G/8A/8 | 
[V:5] [C3A,3F,3]F,3//G,/8A,/8 | 
[V:1] B,2B,2 |[1 
[V:2] B,2B,2 | 
[V:3] B,2B,2 | 
[V:4] B4 | 
[V:5] B,4 | 
[V:1] G2EG,3// A,// | 
[V:2] B,2G,E,3// E,// | 
[V:3] E,2E,C,3// C,// | 
[V:4] [g2e2B2G2][eBG]G3//A// & x2xE | 
[V:5] [B,2G,2E,2]-[B,G,E,][A,E,C,] | 
[V:1] B,2{/B,}A,3/G,/ | 
[V:2] G,2{/G,}^F,3/G,/ | 
[V:3] D,7/G,/ | 
[V:4] [B2G2]{/[BG]}[A3/^F3/]G/ | 
[V:5] [B,2G,2][C2A,2] & D,4 | 
[V:1] G,zz2 :|][2 
[V:2] G,zz2 :|]  
[V:3] G,zz2 :|]  
[V:4] GG_GF :|]  
[V:5] [B,G,]G,_G,F, :|]  
[V:1] G2ED3// C// | 
[V:2] B,2G,D3// C// | 
[V:3] E,2E,D,3// C,// | 
[V:4] [g2e2B2G2][eBG]d3//c// | 
[V:5] [B,2G,2E,2]-[B,G,E,]D,3//C,// | 
[V:1] F4 | 
[V:2] F4 | 
[V:3] F,4 | 
[V:4] fz[AFEC]z | 
[V:5] F,z[F,F,,]z | 
[V:1] B,zz2 | 
[V:2] B,zz2 | 
[V:3] B,,zz2 | 
[V:4] [BFD][dB][ecA][fd_A] | 
[V:5] [B,4B,,4]- | 
[V:1] z4 | 
[V:2] z4 | 
[V:3] z4 | 
[V:4] fede & G2^FG | 
[V:5] [B,4B,,4]- | 
[V:1] z4 | 
[V:2] z4 | 
[V:3] z4 | 
[V:4] [d2B2=F2]{/d}[c3/A3/]B/ & x2E3/D/ | 
[V:5] [B,4B,,4] | 
[V:1] z4 | 
[V:2] z4 | 
[V:3] z4 | 
[V:4] [BD]D[ECA,][FDB,_A,] | 
[V:5] [B,2B,,2-]B,,2 | 
[V:1] z4 | 
[V:2] z4 | 
[V:3] z4 | 
[V:4] FEDE & B,4 | 
[V:5] G,2^F,G, & B,,4 | 
[V:1] z4 | 
[V:2] z4 | 
[V:3] z4 | 
[V:4] [D2B,2]{/D}C3/B,/ | 
[V:5] =F,2-[C2F,2E,2] & B,,4 | 
[V:1] z4 | 
[V:2] z4 | 
[V:3] z4 | 
[V:4] B,2E_G | 
[V:5] [F,2D,2B,,2-]_G,E, & x2B,,2- | 
[V:1] z4 | 
[V:2] z4 | 
[V:3] z4 | 
[V:4] [B2D2]E_G | 
[V:5] F,2_G,E, & B,,4 | 
[V:1] !fermata!z4 |]  
[V:2] !fermata!z4 |]  
[V:3] !fermata!z4 |]  
[V:4] [F4D4] |]  
[V:5] [B,4F,4D,4] |]  


